X:203 
T:Strand Road*, The 
S:Grier MS
B:CRE4.017: gan ainm, no repeats
Q:160
F:file ID cre.4/203strand_r
L:1/8
M:6/8
R:jig
K:D
FDD GEE|FDD GEE|FGA BAG|FGA ABc|
"5"dBB cAA|BGB AGF|GFE Ddc|dAF D3 :|
"9"fdd gee|fdf edc|dcd Bed|cAA ABc|
[1 "13"dBB cAA|BGB AGF|GFE Ddc|dAF D3 :|
[2 "13a" d2B c2A|B2G A2F|GFE Ddc|dAF HD3|]

%%%


